X: 19214
T: Isle Of Ewe, The
R: jig
M: 6/8
K: Dminor
|:DFA dAF|def ecA|d2A BAG|FAE FDD|
A,DF DFA|def ecA|d2A BAG|FAE FDD:|
|:def a2f|gab cef|def aba|aba fdd|
def a2f|gab cef|d2A BAG|FAE FDD:|

